X:1
T:Wright City, LMD
T:Wright City, LMD
T:Aaron Coons, 1875
T:Public Domain Courtesy of the Cyber Hymnal™
C:Aaron Coons, 1875
Z:Public Domain
Z:Courtesy of the Cyber Hymnal™
%%score 1 ( 2 3 )
L:1/8
Q:1/4=83
M:3/4
K:Bb
V:1 treble 
V:2 bass 
V:3 bass 
V:1
 [DF][DB] [EA] | [FB]3 [EG] [DF][CE] | [B,D]3 [DF] [EG][EG] | [Ee]3 [Fd] [Gc][GB] | %4
 [Fc]3 [EF] [DB][DB] | [Fd]3 [Ec] [DB][FB] | [Ge]3 [Gc] [Ff][Fe] | [Fd]3 [Gc] [FB][EA] | %8
 [DB]3 [Fd] z2 | [DB] z/ [DA]/ [DB][EG] [CF][C=E] | [CF]3 [FA] [Fc][Fe] | [Fd]3 [FB] [FB][Fd] | %12
 [Fc]3 [EF] [DB][DB] | [Fd]3 [^Fc] [GB][GB] | [Ge]3 [Ac] [Ff][Fe] | [Fd]3 [Gc] [FB][EA] | %16
 [DB]2 z |] %17
V:2
 [B,,B,][B,,F,] [C,F,] | F, B,2 [E,B,] [F,B,]F, | [B,,F,]3 [B,,B,] [E,B,][E,B,] | %3
 [C,C]3 [D,B,] [E,B,][=E,C] | [F,A,]3 [F,A,] [B,,B,][B,,F,] | [B,,B,]3 [B,,B,] B,[B,D] | %6
 [E,C]3 [E,C] [D,B,][F,C] | B,3 [E,E] [F,D][F,C] | [B,,B,]3 [B,,B,] z2 | %9
 [B,,F,] z/ [B,,F,]/ [B,,F,][B,,B,] [C,A,][C,G,] | [F,A,]3 [F,C] [F,A,][F,A,] | %11
 [B,,B,]3 [B,,D] [B,,D][B,,B,] | [F,A,]3 [F,A,] [B,,B,][B,,F,] | [B,,B,]3 [D,A,] [E,G,][E,B,] | %14
 [C,C]3 [F,C] [D,D][F,C] | B,3 [E,E] [F,D][F,C] | [B,,B,]2 z |] %17
V:3
 x3 | D,3 x F, x | x6 | x6 | x6 | x4 B, x | x6 | B,3 x3 | x6 | x6 | x6 | x6 | x6 | x6 | x6 | %15
 B,3 x3 | x3 |] %17

